common/resources/fonts/svg/undo.svg

<?xml version="1.0" encoding="UTF-8" standalone="no"?>
<svg width="1024px" height="1024px" viewBox="0 0 1024 1024" version="1.1" xmlns="http://www.w3.org/2000/svg" xmlns:xlink="http://www.w3.org/1999/xlink">
    <!-- Generator: Sketch 3.7.1 (28215) - http://www.bohemiancoding.com/sketch -->
    <title>undo</title>
    <desc>Created with Sketch.</desc>
    <defs></defs>
    <g id="Page-1" stroke="none" stroke-width="1" fill="none" fill-rule="evenodd">
        <g id="undo" fill="#000000">
            <path d="M512.5,120.9375 C388.92707,120.9375 277.059062,171.036523 196.075547,252.021787 L65,120.9375 L65,456.5625 L400.625,456.5625 L275.174668,331.120908 C335.915801,270.383271 419.818555,232.8125 512.5,232.8125 C697.852402,232.8125 848.125,383.078105 848.125,568.4375 C848.125,668.684492 804.168613,758.656465 734.486221,820.15625 L808.486289,904.0625 C901.396729,822.065117 960,702.09666 960,568.4375 C960,321.289893 759.647607,120.9375 512.5,120.9375 L512.5,120.9375 Z" id="Shape"></path>
        </g>
    </g>
</svg>

<svg width="1024" height="1024" viewBox="0 0 1024 1024">
    <path d="M512.5 120.938c-123.573 0-235.44 50.099-316.424 131.084L65 120.938v335.625h335.625L275.175 331.12c60.74-60.738 144.644-98.308 237.325-98.308 185.352 0 335.625 150.265 335.625 335.625 0 100.246-43.956 190.218-113.639 251.718l74 83.907C901.396 822.064 960 702.096 960 568.438c0-247.148-200.352-447.5-447.5-447.5z" fill-rule="evenodd"/>
</svg>
